!!!OTL-incipit: ALS ICH EIN JUNG GESELLE WAR
!!!ARE: Europa, Mitteleuropa, Deutschland, Ober - Deutschland
!!!SCT: Z0129
!!!TXL: @@DE
!!!YEM: Copyright 1995, estate of Helmut Schaffrath.
**kern	**text
*ICvox	*
*M2/4	*
*k[b-]	*
*F:	*
!LO:TX:a:t=Oberdeutſch.	!
{8c	Als
=1	=1
8f	ich
8a	ein
8a	jung
8g	Ge
=2	=2
8g	ſel-
8f	-le
8f}	war,
{8f	nahm
=3	=3
8a	ich
8cc	ein
8cc	ſteinalt
8a	.
=4	=4
4aqq	.
4g	Weib;
8r}	.
{8c	Als
=5	=5
8f	ich
8a	ein
8a	jung
8g	Ge
=6	=6
8g	ſel-
8f	-le
8f}	war,
{8f	nahm
=7	=7
8a	ich
8cc	ein
8cc	ſteinalt
8a	.
=8	=8
4aqq	.
4g	Weib;
8r}	.
=|:	=|:
{8f	ich
=9	=9
8a	hatt'
8cc	ſie
8cc	kaum
8cc	drei
=10	=10
4cc	Ta-
4a}	-ge,
=11	=11
{(4ff	Ta-
(4dd)	.
=12	=12
4cc)	.
8a}	-ge,
{8cc	da
=13	=13
8b-/	hat's
8g	mich
8f	ſchon
8e	ge-
=14	=14
(8fL	-reut,
8a	.
8ccJ)}	.
{8a	da
=15	=15
8b-/	hat's
8g	mich
8f	ſchon
8e	ge-
=16	=16
4.f}	-reut.
==	==
!!!AGN: Erzaehlung, lustige Romanze
!!!ONB: ESAC (Essen Associative Code) Database: ZUCCAL
!!!AMT: simple duple
!!!AIN: vox
!!!EED: Helmut Schaffrath
!!!EEV: 1.0
!!!GTL: II. Erzahlungen, lustige Romanzen, Kinder-Lieder und episch-lyrische Volks-Lieder.
!!!URL-scan: https://www.digitale-sammlungen.de/de/view/bsb11160571?page=243
!!!ENC: Anna Maria Matuszewska
!!!EEV: 2025/01/27
*-	*-
